X:21
T:Georges. ThoH.021
Q:1/2=90
M:3/2
L:1/8
B:Thompson's Compleat Collection of 120 Favourite Hornpipes.
Z:Village Music Project, Simon Wilson 2016
O:England.
K:Am
a4(edcB)c2A2|(fedc) (dBcA)^G4|(AE)(BE) (cE)(BE)A2(cB)|(AGFE) (DCB,A,)^G,4|
a4(edcB)c2A2|(fedc) (dBcA)^G4|(AE)(BE) (cE)(BE)A2(cB)|(AGFE) (DCB,C)A,4:|
|:g4(fedc)B4|_B2(dc) (BAGB) (AFEF)|a4(edcB)^c4|d2(fe) (dcBA) (^GE^FG)|
(AcBA) (acBA) (ecBA)|(b^gae) (fde^c)d4|(fdcB) (ecBA) (dBA^G)|(AEFD) (ECDB,)A,4:|

